_inc/systems/logos/wonderswancolor.svg

<?xml version="1.0" encoding="utf-8"?>
<svg version="1.1" viewBox="0 0 264 76" xmlns="http://www.w3.org/2000/svg">
  <g transform="matrix(0.44, 0, 0, 0.44, 0, 0)">
    <polygon points="178.191 57.318 168.336 65.471 117.379 65.471 125.566 31.152 133.809 24.611 141.993 24.611 133.809 58.93 141.993 54.03 148.561 29.54 153.49 24.611 165.018 24.611 156.805 58.93 165.018 52.418 169.918 31.152 176.519 24.611 186.405 24.611" id="polygon9" style="fill-opacity: 1; fill: rgb(255, 255, 255);"/>
    <polygon points="508.351 57.318 497.15 65.471 450.199 65.471 454.38 45.877 461.816 38.738 471.372 38.738 465.761 60.275 474.002 55.375 476.091 44.235 481.591 38.738 493.058 38.738 487.442 60.275 495.211 55.078 497.42 45.877 504.586 38.738 513.13 38.738" id="polygon11" style="fill-opacity: 1; fill: rgb(255, 255, 255);"/>
    <path d="M 386.072 65.471 L 394.316 57.318 L 429.68 57.318 C 429.68 57.318 432.724 58.215 434.459 54.361 C 436.041 50.776 432.967 50.776 432.967 50.776 L 416.54 50.776 C 416.54 50.776 411.821 49.699 411.791 43.905 C 411.701 29.66 423.412 25.983 423.412 25.983 L 457.935 25.983 L 451.066 32.794 L 432.967 32.794 C 432.967 32.794 427.2 34.439 427.08 39.248 C 426.993 41.428 429.68 40.981 429.68 40.981 L 444.432 40.981 C 444.432 40.981 452.975 42.413 451.003 51.614 C 448.433 63.712 439.532 65.471 439.532 65.471 L 386.072 65.471 L 386.072 65.471 Z" id="path13" style="fill-opacity: 1; fill: rgb(255, 255, 255);"/>
    <path d="M 357.997 65.471 L 372.749 65.471 L 377.228 48.507 C 377.769 46.534 382.965 44.295 381.59 44.535 C 380.245 44.772 386.309 43.637 386.309 43.637 C 386.309 43.637 388.222 44.175 389.176 45.49 C 390.164 46.772 388.222 48.687 387.952 50.179 C 387.684 51.671 389.597 51.821 389.597 51.821 L 397.84 51.821 C 397.84 51.821 402.259 50.179 403.454 48.537 C 404.622 46.865 406.081 45.132 406.081 43.667 C 406.081 42.205 402.827 40.383 402.827 40.383 L 399.512 38.771 L 374.872 38.771 C 374.872 38.771 363.074 45.523 361.702 46.925 C 361.222 47.342 357.997 65.471 357.997 65.471 Z" id="path15" style="fill-opacity: 1; fill: rgb(255, 255, 255);"/>
    <path d="M 185.537 46.745 C 184.402 48.056 180.701 59.587 181.505 61.466 C 182.34 63.292 186.912 65.468 186.912 65.468 L 210.925 65.468 C 210.925 65.468 222.123 58.449 222.99 57.465 C 223.825 56.45 226.992 45.25 226.992 44.082 C 226.992 42.917 224.305 38.735 224.305 38.735 L 196.227 38.735 C 196.23 38.738 186.705 45.43 185.537 46.745 Z M 204.264 44.085 L 211.643 44.085 C 211.643 44.085 210.805 52.959 208.956 55.465 C 207.074 57.975 202.922 60.155 202.922 60.155 C 202.922 60.155 198.263 60.632 197.605 60.155 C 196.918 59.617 197.425 54.808 197.425 54.808 C 197.425 54.808 198.053 49.611 198.92 48.086 C 199.758 46.594 204.264 44.085 204.264 44.085 Z" id="path17" style="fill-opacity: 1; fill: rgb(255, 255, 255);"/>
    <path d="M 275.081 46.745 C 273.947 48.056 270.245 59.587 271.08 61.466 C 271.917 63.292 276.456 65.468 276.456 65.468 L 309.878 65.468 C 309.878 65.468 310.983 60.155 312.358 54.775 C 313.669 49.729 315.225 41.965 315.225 41.392 C 315.225 40.197 323.528 29.717 323.528 29.717 L 309.013 29.717 L 301.667 38.735 L 285.775 38.735 C 285.808 38.738 276.279 45.43 275.081 46.745 Z M 293.808 44.085 L 301.157 44.085 C 301.157 44.085 300.35 52.959 298.467 55.465 C 296.645 57.975 292.463 60.155 292.463 60.155 C 292.463 60.155 287.807 60.632 287.117 60.155 C 286.489 59.617 286.939 54.808 286.939 54.808 C 286.939 54.808 287.567 49.611 288.461 48.086 C 289.299 46.594 293.808 44.085 293.808 44.085 Z" id="path19" style="fill-opacity: 1; fill: rgb(255, 255, 255);"/>
    <path d="M 223.414 65.471 L 230.997 38.738 L 263.076 38.738 C 263.076 38.738 267.318 39.185 268.75 41.575 C 270.245 43.968 269.768 48.086 269.768 48.086 L 265.406 65.471 L 252.026 65.471 C 252.026 65.471 253.578 56.957 255.073 50.776 C 256.565 44.592 252.383 44.085 252.383 44.085 L 244.38 44.085 L 239.781 60.125 C 239.781 60.125 235.779 64.784 234.107 65.471 L 223.414 65.471 Z" id="path21" style="fill-opacity: 1; fill: rgb(255, 255, 255);"/>
    <path d="M 552.613 65.471 L 561.126 38.738 L 593.206 38.738 C 593.206 38.738 597.418 39.185 598.91 41.575 C 600.405 43.968 599.928 48.086 599.928 48.086 L 595.415 65.471 L 580.751 65.471 C 580.751 65.471 583.2 58.305 584.755 52.088 C 586.247 45.937 582.573 44.085 582.573 44.085 L 574.539 44.085 L 570.057 60.122 C 570.057 60.122 566.356 64.781 564.714 65.471 L 552.613 65.471 Z" id="path23" style="fill-opacity: 1; fill: rgb(255, 255, 255);"/>
    <path d="M 319.196 46.745 C 318.031 48.056 314.387 59.587 315.195 61.466 C 316.002 63.292 320.541 65.468 320.541 65.468 L 344.584 65.468 C 344.584 65.468 349.364 62.481 352.918 60.122 C 352.918 60.122 332.489 60.272 331.234 60.122 C 330.667 60.061 330.877 57.585 330.937 56.123 L 347.364 56.123 C 347.364 56.123 350.528 55.435 355.248 51.521 C 360.027 47.609 360.624 47.189 360.624 44.082 C 360.624 41.008 357.934 38.735 357.934 38.735 L 329.862 38.735 C 329.919 38.738 320.364 45.43 319.196 46.745 Z M 337.956 44.085 L 348.736 44.085 C 348.736 44.085 347.541 48.176 341.66 50.776 L 332.669 50.776 C 331.802 48.447 333.924 46.594 335.119 45.577 C 336.371 44.442 337.956 44.085 337.956 44.085 Z" id="path25" style="fill-opacity: 1; fill: rgb(255, 255, 255);"/>
    <path d="M 535.231 65.471 C 535.231 65.471 539.77 51.106 541.205 46.504 C 541.922 43.998 540.25 44.085 537.083 44.085 C 533.916 44.085 531.616 44.772 527.227 52.088 C 522.091 60.632 534.814 62.961 534.814 62.961 L 533.916 65.468 L 519.221 65.468 C 519.221 65.468 511.188 65.798 511.188 56.123 C 511.188 44.235 526.39 38.735 526.39 38.735 L 558.497 38.735 L 549.956 65.468 L 535.231 65.468 L 535.231 65.471 Z" id="path27" style="fill-opacity: 1; fill: rgb(255, 255, 255);"/>
    <path d="M 76.792 24.731 C 77.536 24.704 78.314 24.671 79.091 24.671 C 95.816 24.671 110.153 40.888 111.228 49.131 C 111.348 49.999 111.408 50.776 111.468 51.434 C 111.258 28.912 76.164 0 47.969 0 C 26.223 0 16.07 8.781 12.723 18.697 C 7.706 31.212 14.308 49.014 29.72 61.677 C 31.362 62.991 32.974 64.213 34.646 65.351 C 33.929 65.411 33.154 65.411 32.377 65.411 C 15.65 65.411 1.312 49.194 0.237 40.951 C 0.15 40.083 0.06 39.309 0 38.651 C 0.207 61.169 35.304 90.082 63.499 90.082 C 85.242 90.082 95.398 81.274 98.743 71.385 C 103.762 58.9 97.161 41.101 81.748 28.405 C 80.103 27.09 78.491 25.865 76.792 24.731 Z M 45.397 62.127 C 32.974 51.941 28.849 36.976 35.808 28.462 C 42.827 19.951 58.66 20.936 71.382 30.855 C 83.985 40.65 88.824 55.582 82.373 64.483 C 85.002 59.137 82.075 51.103 75.144 45.637 C 67.708 39.783 58.359 39.185 54.238 44.235 C 50.086 49.281 52.565 58.182 59.854 64.243 C 65.498 68.935 72.337 70.575 77.236 68.875 C 68.965 73.267 55.913 70.758 45.397 62.127 Z" id="path29" style="fill-opacity: 1; fill: rgb(255, 255, 255);"/>
    <path style="fill-opacity: 1; fill: rgb(255, 255, 255);" id="path9" d="M 330.061 82.129 C 325.305 80.727 319.947 87.446 315.372 97.698 C 311.298 114.785 302.235 139.975 301.652 157.36 C 301.385 165.075 308.509 167.336 313.345 169.044 C 328.662 174.445 337.617 169.161 342.18 163.643 C 345.458 159.684 341.988 156.384 337.923 157.594 C 332.045 159.332 324.861 160.512 323.375 154.835 C 321.742 148.573 330.454 122.849 336.47 103.693 C 339.76 93.225 342.543 84.549 330.067 82.114 Z"/>
    <path style="fill-opacity: 1; fill: rgb(255, 255, 255);" id="path11" d="M 250.708 112.438 C 240.342 113.513 219.742 118.997 219.742 145.646 C 219.742 146.898 215.984 175.732 253.17 172.388 C 290.368 169.047 296.627 145.646 296.627 145.646 C 296.627 145.646 305.828 114.719 283.256 115.56 C 269.483 116.067 263.199 122.245 263.199 122.245 C 263.199 122.245 272.389 124.05 274.373 130.648 C 278.141 143.161 276.751 164.271 256.514 162.358 C 236.202 160.44 246.124 133.608 252.524 120.003 C 254.737 115.326 254.196 112.078 250.714 112.438 Z"/>
    <path style="fill-opacity: 1; fill: rgb(255, 255, 255);" id="path13-9" d="M 374.394 112.438 C 364.025 113.513 343.426 118.997 343.426 145.646 C 343.426 146.898 339.67 175.732 376.853 172.388 C 414.051 169.047 420.313 145.646 420.313 145.646 C 420.313 145.646 429.512 114.719 406.942 115.56 C 393.166 116.067 386.886 122.245 386.886 122.245 C 386.886 122.245 396.072 124.05 398.056 130.648 C 401.827 143.161 400.437 164.271 380.197 162.358 C 359.886 160.44 369.807 133.608 376.208 120.003 C 378.417 115.326 377.88 112.078 374.397 112.438 Z"/>
    <path style="fill-opacity: 1; fill: rgb(255, 255, 255);" id="path15-7" d="M 129.477 132.272 C 127.811 99.256 173.415 84.441 189.653 83.189 C 205.9 81.925 223.083 85.471 223.083 85.471 C 223.083 85.471 220.577 118.061 213.054 118.898 C 205.54 119.736 207.206 94.246 192.994 95.5 C 166.973 97.791 156.532 126.157 156.222 135.613 C 156.084 140.186 157.486 160.68 176.279 159.014 C 195.084 157.336 199.265 147.306 203.024 145.64 C 206.788 143.962 213.996 140.663 213.051 148.984 C 210.973 167.363 176.279 172.385 176.279 172.385 C 176.279 172.385 131.651 174.85 129.48 132.275 Z"/>
    <path style="fill-opacity: 1; fill: rgb(255, 255, 255);" id="path17-8" d="M 437.035 169.05 C 421.157 169.888 429.932 150.657 433.693 138.961 C 437.458 127.256 436.767 114.425 450.406 115.563 C 465.485 116.806 453.747 135.619 453.747 135.619 C 453.747 135.619 476.652 110.502 497.207 112.219 C 502.227 112.633 487.177 145.649 487.177 145.649 C 487.177 145.649 483.419 133.53 473.806 135.619 C 446.173 141.633 452.915 168.215 437.041 169.053 Z"/>
  </g>
</svg>

<svg xmlns="http://www.w3.org/2000/svg" viewBox="0 0 264 76"><path d="m178.19 57.32-9.85 8.15h-50.96l8.19-34.32 8.24-6.54h8.18l-8.18 34.32 8.18-4.9 6.57-24.49 4.93-4.93h11.53l-8.21 34.32 8.21-6.51 4.9-21.27 6.6-6.54h9.89zm330.16 0-11.2 8.15H450.2l4.18-19.59 7.44-7.14h9.55l-5.61 21.54 8.24-4.9 2.09-11.14 5.5-5.5h11.47l-5.62 21.54 7.77-5.2 2.21-9.2 7.17-7.14h8.54zm-122.28 8.15 8.25-8.15h35.36s3.04.9 4.78-2.96c1.58-3.58-1.5-3.58-1.5-3.58h-16.42s-4.72-1.08-4.75-6.87c-.09-14.25 11.62-17.93 11.62-17.93h34.52l-6.86 6.81h-18.1s-5.77 1.65-5.89 6.46c-.09 2.18 2.6 1.73 2.6 1.73h14.75s8.55 1.43 6.57 10.63c-2.57 12.1-11.47 13.86-11.47 13.86z" style="fill-opacity:1;fill:#fff" transform="scale(.44)"/><path d="M358 65.47h14.75l4.48-16.96c.54-1.98 5.73-4.21 4.36-3.98-1.34.24 4.72-.9 4.72-.9s1.91.54 2.87 1.86c.98 1.28-.96 3.2-1.23 4.69s1.65 1.64 1.65 1.64h8.24s4.42-1.64 5.61-3.28c1.17-1.67 2.63-3.4 2.63-4.87s-3.25-3.29-3.25-3.29l-3.32-1.6h-24.64s-11.8 6.74-13.17 8.14c-.48.42-3.7 18.55-3.7 18.55M185.54 46.75c-1.14 1.3-4.84 12.84-4.03 14.72.83 1.82 5.4 4 5.4 4h24.02s11.2-7.02 12.06-8c.83-1.02 4-12.22 4-13.39 0-1.16-2.69-5.34-2.69-5.34h-28.07s-9.52 6.69-10.7 8m18.72-2.66h7.38s-.83 8.87-2.68 11.38c-1.89 2.5-6.04 4.69-6.04 4.69s-4.66.47-5.31 0c-.7-.54-.19-5.35-.19-5.35s.63-5.2 1.5-6.72c.84-1.5 5.34-4 5.34-4m70.83 2.67c-1.13 1.3-4.83 12.84-4 14.72.84 1.82 5.38 4 5.38 4h33.42s1.1-5.31 2.48-10.7a169 169 0 0 0 2.87-13.38c0-1.2 8.3-11.67 8.3-11.67H309l-7.34 9.02h-15.9c.04 0-9.5 6.69-10.69 8m18.73-2.66h7.35s-.81 8.87-2.7 11.38c-1.81 2.5-6 4.69-6 4.69s-4.65.47-5.34 0c-.63-.54-.18-5.35-.18-5.35s.63-5.2 1.52-6.72c.84-1.5 5.35-4 5.35-4m-70.39 21.39L231 38.74h32.08s4.24.45 5.67 2.84c1.5 2.39 1.02 6.5 1.02 6.5l-4.36 17.4h-13.38s1.55-8.52 3.04-14.7c1.5-6.19-2.69-6.7-2.69-6.7h-8l-4.6 16.05s-4 4.65-5.67 5.34zm329.2 0 8.52-26.73h32.08s4.2.45 5.7 2.84 1.02 6.5 1.02 6.5l-4.51 17.4h-14.67s2.45-7.18 4-13.4c1.5-6.14-2.18-8-2.18-8h-8.03l-4.48 16.04s-3.7 4.66-5.35 5.35zM319.2 46.75c-1.17 1.3-4.81 12.84-4 14.72.8 1.82 5.34 4 5.34 4h24.04s4.78-2.99 8.34-5.35c0 0-20.43.15-21.69 0-.56-.06-.35-2.53-.3-4h16.43s3.17-.68 7.89-4.6c4.78-3.91 5.37-4.33 5.37-7.44 0-3.07-2.69-5.34-2.69-5.34h-28.07c.06 0-9.5 6.69-10.66 8m18.76-2.66h10.78s-1.2 4.09-7.08 6.69h-9c-.86-2.33 1.26-4.19 2.46-5.2 1.25-1.14 2.84-1.5 2.84-1.5m197.27 21.4s4.54-14.36 5.98-18.97c.71-2.5-.96-2.41-4.13-2.41s-5.46.68-9.85 8c-5.14 8.54 7.58 10.87 7.58 10.87l-.9 2.5h-14.69s-8.03.34-8.03-9.34c0-11.88 15.2-17.38 15.2-17.38h32.1l-8.53 26.73zM76.8 24.73q1.11-.05 2.3-.06c16.72 0 31.05 16.22 32.13 24.46q.17 1.31.24 2.3C111.26 28.91 76.17 0 47.97 0c-21.75 0-31.9 8.78-35.25 18.7-5.01 12.51 1.59 30.31 17 42.98a79 79 0 0 0 4.93 3.67q-1.1.08-2.27.06C15.65 65.41 1.3 49.2.24 40.95L0 38.65c.2 22.52 35.3 51.43 63.5 51.43 21.74 0 31.9-8.8 35.24-18.7 5.02-12.48-1.58-30.28-17-42.97a72 72 0 0 0-4.95-3.68m-31.4 37.4c-12.43-10.19-16.55-25.15-9.6-33.67 7.03-8.5 22.86-7.52 35.58 2.4 12.6 9.79 17.44 24.72 11 33.62 2.62-5.34-.3-13.38-7.24-18.84-7.43-5.86-16.78-6.45-20.9-1.4-4.15 5.04-1.68 13.94 5.61 20 5.65 4.7 12.49 6.34 17.39 4.64-8.27 4.39-21.33 1.88-31.84-6.75m284.67 20c-4.75-1.4-10.11 5.32-14.69 15.57-4.07 17.08-13.13 42.27-13.72 59.66-.26 7.71 6.86 9.98 11.7 11.68 15.31 5.4 24.27.12 28.83-5.4 3.28-3.96-.2-7.26-4.26-6.05-5.87 1.74-13.06 2.92-14.55-2.75-1.63-6.27 7.08-32 13.1-51.15 3.29-10.47 6.07-19.14-6.4-21.58Zm-79.36 30.31c-10.36 1.07-30.96 6.56-30.96 33.2 0 1.26-3.76 30.1 33.43 26.75 37.2-3.34 43.46-26.74 43.46-26.74s9.2-30.93-13.37-30.09c-13.78.5-20.06 6.69-20.06 6.69s9.19 1.8 11.17 8.4c3.77 12.51 2.38 33.62-17.86 31.7-20.3-1.91-10.39-28.74-3.99-42.35 2.22-4.67 1.68-7.92-1.8-7.56Z" style="fill-opacity:1;fill:#fff" transform="scale(.44)"/><path d="M374.4 112.44c-10.37 1.07-30.97 6.56-30.97 33.2 0 1.26-3.76 30.1 33.42 26.75 37.2-3.34 43.46-26.74 43.46-26.74s9.2-30.93-13.37-30.09c-13.77.5-20.05 6.69-20.05 6.69s9.18 1.8 11.17 8.4c3.77 12.51 2.38 33.62-17.86 31.7-20.31-1.91-10.4-28.74-4-42.35 2.22-4.67 1.68-7.92-1.8-7.56m-244.92 19.83c-1.67-33.01 43.94-47.83 60.17-49.08 16.25-1.27 33.43 2.28 33.43 2.28s-2.5 32.6-10.03 33.43c-7.51.84-5.84-24.65-20.06-23.4-26.02 2.3-36.46 30.66-36.77 40.11-.14 4.58 1.27 25.07 20.06 23.4 18.8-1.67 22.98-11.7 26.74-13.37 3.77-1.68 10.98-4.98 10.03 3.34-2.08 18.38-36.77 23.4-36.77 23.4s-44.63 2.47-46.8-40.1Zm307.56 36.78c-15.88.84-7.1-18.4-3.35-30.09 3.77-11.7 3.08-24.54 16.72-23.4 15.07 1.25 3.34 20.06 3.34 20.06s22.9-25.12 43.46-23.4c5.02.41-10.03 33.43-10.03 33.43s-3.76-12.12-13.37-10.03c-27.64 6.01-20.9 32.6-36.77 33.43" style="fill-opacity:1;fill:#fff" transform="scale(.44)"/></svg>
